Gurmukhi/0A1D.svg

<svg enable-background="new 0 0 336 592" viewBox="0 0 336 592" xmlns="http://www.w3.org/2000/svg"><path d="m179.987183 389.021149c-7.285355-8.455353-17.497574-6.77298-26.539795-8.65091-11.33545-2.354126-22.343384-5.465484-31.604721-12.843719-5.950798-4.740875-9.553406-10.893677-8.762383-18.606537.997147-9.722748 10.938126-15.641998 22.312706-13.906525 10.929138 1.667511 20.69458 6.566712 28.187058 14.110108 8.186554 8.242157 16.700897 9.208374 27.048782 6.555847 10.239532-2.624817 20.258026-5.552246 28.755447-12.140717 16.370331-12.692596 14.551712-32.557007-3.817581-42.167816-9.204773-4.815948-19.191986-6.543365-29.390701-6.966675-23.353684-.96936-46.052384 3.158387-68.465576 9.295136-6.448174 1.765533-7.642792 1.013397-8.973717-5.316834-.786911-3.742706-1.15435-7.620392-2.369461-11.214599-1.559326-4.612366.373527-6.197327 4.48111-7.315308 10.426857-2.837921 21.004463-4.884216 32.447883-6.681976-9.424484-5.778656-16.946007-12.600617-22.342697-21.608383-5.392571-9.000885-8.660049-18.769852-10.034706-29.061295-.595764-4.460205-2.489372-5.50412-6.476692-5.363083-5.990921.211945-11.996453-.028335-17.993706.061722-2.60788.039169-4.512405-.63411-5.45652-3.296951-1.557663-4.393326-3.307678-8.719147-4.829819-13.124161-1.122558-3.248642.174523-5.190674 3.610123-5.527222 1.653312-.161957 3.326881-.159988 4.991272-.159988 59.820846.000076 119.641952.088852 179.462066-.115128 5.621766-.019165 8.711884 1.608551 10.067994 7.024964.723083 2.888 2.100769 5.607055 3.094207 8.433593 1.594635 4.537232.19809 6.608796-4.699707 6.691422-6.830108.115234-13.665161.144363-20.494354.013977-3.190475-.060898-4.670364.828033-5.141571 4.354828-1.548355 11.588699-4.410522 22.787735-10.396393 33.075287-5.292312 9.095596-12.565674 15.852859-21.865005 20.578476-.852707.433288-1.657395.96109-3.456848 2.014129 7.169799 2.281342 12.886932 5.524292 18.42044 9.122864 19.082352 12.409729 27.486374 35.133637 20.349976 55.716888-4.830628 13.932892-15.200607 22.782685-27.96019 29.130799-7.18158 3.573028-14.828583 5.906982-22.761978 7.234344-1.430802.23935-2.932816.35199-4.316513 1.886017 9.848556 8.048584 19.196365 16.521057 28.466247 25.087464 3.589478 3.317047 3.142456 5.205902-.130233 8.201171-9.804352 8.973236-6.795014 8.644745-15.990387.064728-8.893067-8.297973-17.644989-16.747345-27.424057-24.585937m2.512817-171.836777c-13.987381.00119-27.974838-.017563-41.962097.022461-2.442032.006988-5.376648-.441773-4.919113 3.640411 1.387619 12.380249 4.45758 24.10463 12.012664 34.394501 15.667664 21.338913 51.027894 21.743149 64.321045-3.036057 5.337128-9.948715 7.387711-20.536376 8.577088-31.483245.396652-3.650772-2.182755-3.516297-4.559128-3.521607-10.823441-.0242-21.646973-.014053-33.470459-.016464z"/></svg>

<svg version="1.1" id="Layer_1" xmlns="http://www.w3.org/2000/svg" xmlns:xlink="http://www.w3.org/1999/xlink" x="0px" y="0px"
	 width="100%" viewBox="0 0 336 592" enable-background="new 0 0 336 592" xml:space="preserve">
<path fill="#000000" opacity="1.000000" stroke="none" 
	d="
M179.987183,389.021149 
	C172.701828,380.565796 162.489609,382.248169 153.447388,380.370239 
	C142.111938,378.016113 131.104004,374.904755 121.842667,367.526520 
	C115.891869,362.785645 112.289261,356.632843 113.080284,348.919983 
	C114.077431,339.197235 124.018410,333.277985 135.392990,335.013458 
	C146.322128,336.680969 156.087570,341.580170 163.580048,349.123566 
	C171.766602,357.365723 180.280945,358.331940 190.628830,355.679413 
	C200.868362,353.054596 210.886856,350.127167 219.384277,343.538696 
	C235.754608,330.846100 233.935989,310.981689 215.566696,301.370880 
	C206.361923,296.554932 196.374710,294.827515 186.175995,294.404205 
	C162.822311,293.434845 140.123611,297.562592 117.710419,303.699341 
	C111.262245,305.464874 110.067627,304.712738 108.736702,298.382507 
	C107.949791,294.639801 107.582352,290.762115 106.367241,287.167908 
	C104.807915,282.555542 106.740768,280.970581 110.848351,279.852600 
	C121.275208,277.014679 131.852814,274.968384 143.296234,273.170624 
	C133.871750,267.391968 126.350227,260.570007 120.953537,251.562241 
	C115.560966,242.561356 112.293488,232.792389 110.918831,222.500946 
	C110.323067,218.040741 108.429459,216.996826 104.442139,217.137863 
	C98.451218,217.349808 92.445686,217.109528 86.448433,217.199585 
	C83.840553,217.238754 81.936028,216.565475 80.991913,213.902634 
	C79.434250,209.509308 77.684235,205.183487 76.162094,200.778473 
	C75.039536,197.529831 76.336617,195.587799 79.772217,195.251251 
	C81.425529,195.089294 83.099098,195.091263 84.763489,195.091263 
	C144.584335,195.091339 204.405441,195.180115 264.225555,194.976135 
	C269.847321,194.956970 272.937439,196.584686 274.293549,202.001099 
	C275.016632,204.889099 276.394318,207.608154 277.387756,210.434692 
	C278.982391,214.971924 277.585846,217.043488 272.688049,217.126114 
	C265.857941,217.241348 259.022888,217.270477 252.193695,217.140091 
	C249.003220,217.079193 247.523331,217.968124 247.052124,221.494919 
	C245.503769,233.083618 242.641602,244.282654 236.655731,254.570206 
	C231.363419,263.665802 224.090057,270.423065 214.790726,275.148682 
	C213.938019,275.581970 213.133331,276.109772 211.333878,277.162811 
	C218.503677,279.444153 224.220810,282.687103 229.754318,286.285675 
	C248.836670,298.695404 257.240692,321.419312 250.104294,342.002563 
	C245.273666,355.935455 234.903687,364.785248 222.144104,371.133362 
	C214.962524,374.706390 207.315521,377.040344 199.382126,378.367706 
	C197.951324,378.607056 196.449310,378.719696 195.065613,380.253723 
	C204.914169,388.302307 214.261978,396.774780 223.531860,405.341187 
	C227.121338,408.658234 226.674316,410.547089 223.401627,413.542358 
	C213.597275,422.515594 216.606613,422.187103 207.411240,413.607086 
	C198.518173,405.309113 189.766251,396.859741 179.987183,389.021149 
M182.500000,217.184372 
	C168.512619,217.185562 154.525162,217.166809 140.537903,217.206833 
	C138.095871,217.213821 135.161255,216.765060 135.618790,220.847244 
	C137.006409,233.227493 140.076370,244.951874 147.631454,255.241745 
	C163.299118,276.580658 198.659348,276.984894 211.952499,252.205688 
	C217.289627,242.256973 219.340210,231.669312 220.529587,220.722443 
	C220.926239,217.071671 218.346832,217.206146 215.970459,217.200836 
	C205.147018,217.176636 194.323486,217.186783 182.500000,217.184372 
z"/>
</svg>
